src/lib/packages/icons/src/assets/line/chat-star.svg

<svg width="24" height="24" viewBox="0 0 24 24" fill="none" xmlns="http://www.w3.org/2000/svg">
<path d="M4.0049 21.749C3.5479 21.749 3.10408 21.569 2.76809 21.233C2.29408 20.76 2.13108 20.073 2.34108 19.441L3.1819 16.94C3.2799 16.633 3.27102 16.325 3.15602 16.082C2.56402 14.809 2.25392 13.399 2.25392 11.999C2.25392 6.62402 6.62697 2.25 12.002 2.25C17.378 2.25 21.751 6.62302 21.751 11.999C21.751 17.375 17.378 21.748 12.002 21.748C10.603 21.748 9.19302 21.437 7.92702 20.848C7.67802 20.729 7.36902 20.721 7.05202 20.822L4.56301 21.658C4.37801 21.719 4.1899 21.749 4.0049 21.749ZM12.001 3.75C7.453 3.75 3.75295 7.45002 3.75295 11.999C3.75295 13.182 4.01596 14.373 4.51296 15.443C4.78896 16.024 4.82493 16.723 4.60793 17.406L3.76393 19.917C3.72193 20.042 3.7859 20.131 3.8279 20.173C3.8699 20.215 3.95998 20.279 4.08498 20.237L6.58303 19.398C7.27703 19.177 7.97696 19.211 8.56496 19.492C9.62696 19.986 10.818 20.249 12.001 20.249C16.55 20.249 20.25 16.549 20.25 12C20.25 7.451 16.55 3.75 12.001 3.75ZM14.292 16.75C14.093 16.75 13.894 16.702 13.709 16.606L12 15.714L10.292 16.605C9.86601 16.828 9.35704 16.79 8.96804 16.506C8.58004 16.223 8.38994 15.753 8.47194 15.281L8.79592 13.405L7.37209 12.028C7.03509 11.702 6.91508 11.223 7.06008 10.777C7.20508 10.33 7.58311 10.011 8.04811 9.94397L10.023 9.65997L10.875 7.94702C11.088 7.51802 11.52 7.25 12.001 7.25C12.481 7.25 12.913 7.51702 13.127 7.94702L13.979 9.65997L15.9541 9.94397C16.4191 10.011 16.7979 10.33 16.9419 10.777C17.0869 11.223 16.9659 11.702 16.6299 12.028L15.2061 13.405L15.531 15.283C15.612 15.757 15.421 16.225 15.033 16.508C14.811 16.668 14.553 16.75 14.292 16.75ZM12 14.18C12.194 14.18 12.3889 14.226 12.5659 14.319L13.9651 15.049L13.699 13.514C13.631 13.115 13.763 12.709 14.054 12.429L15.1721 11.348L13.6179 11.124C13.2219 11.067 12.878 10.819 12.698 10.46L11.9981 9.052L11.2991 10.458C11.1181 10.818 10.775 11.066 10.377 11.124L8.82399 11.348L9.94313 12.43C10.2331 12.709 10.3661 13.115 10.2971 13.513L10.031 15.048L11.43 14.319C11.611 14.226 11.806 14.18 12 14.18ZM8.90212 13.508C8.90312 13.508 8.90312 13.508 8.90212 13.508V13.508ZM15.0991 13.507C15.0981 13.507 15.0981 13.507 15.0991 13.507V13.507ZM15.7371 11.428H15.7481H15.7371ZM11.782 8.61401C11.782 8.61401 11.783 8.61503 11.783 8.61603L11.782 8.61401Z" fill="currentColor"/>
</svg>

<svg xmlns="http://www.w3.org/2000/svg" width="24" height="24" fill="none"><path fill="currentColor" d="M4.005 21.749c-.457 0-.9-.18-1.237-.516a1.743 1.743 0 0 1-.427-1.792l.84-2.501c.099-.307.09-.615-.025-.858a9.74 9.74 0 0 1-.902-4.083c0-5.375 4.373-9.749 9.748-9.749 5.376 0 9.749 4.373 9.749 9.749s-4.373 9.749-9.749 9.749a9.727 9.727 0 0 1-4.075-.9c-.249-.119-.558-.127-.875-.026l-2.489.836a1.781 1.781 0 0 1-.558.091ZM12 3.75c-4.548 0-8.248 3.7-8.248 8.249a8.23 8.23 0 0 0 .76 3.444c.276.581.312 1.28.095 1.963l-.844 2.511a.242.242 0 0 0 .064.256.244.244 0 0 0 .257.064l2.498-.839c.694-.221 1.394-.187 1.982.094a8.21 8.21 0 0 0 3.436.757c4.549 0 8.249-3.7 8.249-8.249S16.549 3.75 12 3.75Zm2.291 13c-.199 0-.398-.048-.583-.144L12 15.714l-1.708.891a1.251 1.251 0 0 1-1.324-.099 1.244 1.244 0 0 1-.496-1.225l.324-1.876-1.424-1.377a1.209 1.209 0 0 1-.312-1.251c.145-.447.523-.766.988-.833l1.975-.284.852-1.713a1.25 1.25 0 0 1 1.126-.697c.48 0 .912.267 1.126.697l.852 1.713 1.975.284c.465.067.844.386.988.833a1.21 1.21 0 0 1-.312 1.251l-1.424 1.377.325 1.878c.081.474-.11.942-.498 1.225-.222.16-.48.242-.741.242ZM12 14.18c.194 0 .389.046.566.139l1.4.73-.267-1.535a1.22 1.22 0 0 1 .355-1.085l1.118-1.081-1.554-.224a1.225 1.225 0 0 1-.92-.664l-.7-1.408-.699 1.406a1.23 1.23 0 0 1-.922.666l-1.553.224 1.12 1.082c.29.279.422.685.353 1.083l-.266 1.535 1.399-.729c.181-.093.376-.139.57-.139Zm-3.098-.672c.001 0 .001 0 0 0Zm6.197-.001Zm.638-2.079h.011-.01Zm-3.955-2.814.001.002-.001-.002Z"/></svg>
